X:155
T:Reel de Ti'Pit
C:Joseph Allard
M:2/4
L:1/16
Z:abc by Bruce Osborne - bosborne@kos.net
K:G
g2dB cBAB|ceag fdef|g2dB cBAB|ceAc BGBd|!
g2dB cBAB|ceag fdef|g2dB cBAB|ceAc BGG2:|!
|:B2AG BGEF|GABc d2gd|B2AG BGEF|GBAF G2GA|!
B2AG BGEF|GABc d2gd|B2AG BGEF|GBAF G4:|!
